src/assets/images/toolbox/handlebars.svg

<svg
  width="40"
  height="10"
  viewBox="0 0 40 10"
  fill="transparent"
  xmlns="http://www.w3.org/2000/svg">
  <path
    fill="#423426"
    d="M14.7131 0.00489996C16.1209 -0.0344691 17.498 0.43432 18.6067 1.33043C19.1535 1.80219 19.6221 2.36284 19.994 2.99029C20.6605 1.8231 21.6843 0.917897 22.9042 0.417286C24.4211 -0.148563 26.0837 -0.138643 27.5942 0.44527C28.8847 0.979735 30.0672 1.75792 31.0811 2.73991C31.8917 3.47631 32.6425 4.28636 33.4774 4.99772C33.907 5.38502 34.3993 5.69114 34.9318 5.90203C35.2949 6.02037 35.683 6.03078 36.0515 5.93206C36.4201 5.83333 36.7542 5.62947 37.0157 5.34384C37.2459 5.06998 37.366 4.7157 37.3514 4.35349C37.3368 3.99127 37.1886 3.6485 36.9372 3.39531C36.8541 3.32319 36.7574 3.26979 36.6532 3.23855C36.549 3.2073 36.4396 3.1989 36.3321 3.21388C36.2246 3.22886 36.1213 3.26689 36.0288 3.32553C35.9364 3.38417 35.8568 3.46212 35.7953 3.55437C35.7159 3.71323 35.6805 3.89164 35.6931 4.06991C35.7057 4.24819 35.7658 4.41942 35.8667 4.56472C35.6303 4.42262 35.4296 4.22514 35.2809 3.98822C35.1321 3.75131 35.0394 3.4816 35.0103 3.2009C34.9901 2.87095 35.0758 2.54331 35.254 2.2686C35.4323 1.99389 35.6932 1.78738 35.9966 1.68096C36.5747 1.45328 37.2087 1.42508 37.8036 1.6006C38.3986 1.77612 38.9223 2.14589 39.2964 2.65448C39.9082 3.66753 40.1321 4.87949 39.9244 6.05373C39.8504 6.60319 39.6683 7.13122 39.3892 7.60536C39.1101 8.0795 38.74 8.48974 38.3016 8.81083C37.0244 9.66164 35.5192 10.074 34.0013 9.98908C32.564 9.93854 31.147 9.62435 29.8165 9.06121C27.5928 8.13923 25.5118 6.86378 23.2154 6.12737C22.4181 5.89738 21.6078 5.71883 20.789 5.59274C20.1753 5.60305 19.5601 5.57065 18.9478 5.61483C18.1985 5.68077 17.4616 5.85376 16.7584 6.12884C14.4234 6.8785 12.311 8.19078 10.0502 9.10981C8.1346 9.93453 6.03038 10.1768 3.98573 9.80792C2.82283 9.60916 1.75639 9.01879 0.952781 8.12892C0.304899 7.32627 -0.0303781 6.30357 0.0122096 5.25988C-0.0639707 4.2704 0.218285 3.28694 0.804345 2.49984C1.09996 2.14783 1.47248 1.87342 1.89114 1.69928C2.3098 1.52514 2.7626 1.45626 3.21215 1.49833C3.50345 1.50638 3.78967 1.57893 4.05143 1.71106C4.31319 1.84319 4.54438 2.03183 4.72934 2.26419C4.85605 2.45912 4.93765 2.68149 4.96784 2.91413C4.99803 3.14677 4.97601 3.38346 4.90347 3.60592C4.73629 3.99651 4.45998 4.32676 4.10991 4.55441C4.2121 4.41116 4.27313 4.2411 4.286 4.06371C4.29887 3.88633 4.26307 3.70879 4.1827 3.55143C4.11792 3.45539 4.03366 3.37507 3.93576 3.31605C3.83786 3.25702 3.72867 3.22071 3.61579 3.20964C3.50292 3.19856 3.38906 3.21299 3.28213 3.25193C3.17521 3.29086 3.07778 3.35336 2.99663 3.43507C2.80221 3.65166 2.6772 3.92482 2.63864 4.21736C2.60007 4.50989 2.64982 4.80758 2.78112 5.06989C2.93935 5.33165 3.15521 5.55117 3.41115 5.71061C3.6671 5.87005 3.9559 5.9649 4.25406 5.98745C5.11595 5.962 5.93463 5.5924 6.53769 4.95649C7.807 3.68458 9.1553 2.4994 10.574 1.40849C11.7886 0.527992 13.2292 0.0394831 14.7131 0.00489996Z"
  />
</svg>

<svg xmlns="http://www.w3.org/2000/svg" width="40" height="10" fill="transparent" xmlns:v="https://vecta.io/nano">
  <path fill="#423426"
    d="M14.713.005c1.408-.039 2.785.429 3.894 1.326a6.71 6.71 0 0 1 1.387 1.66 5.97 5.97 0 0 1 2.91-2.573c1.517-.566 3.18-.556 4.69.028 1.29.534 2.473 1.313 3.487 2.295l2.396 2.258c.43.387.922.693 1.454.904.363.118.751.129 1.12.03s.703-.303.964-.588a1.45 1.45 0 0 0 .336-.99c-.015-.362-.163-.705-.414-.958a.77.77 0 0 0-.284-.157c-.104-.031-.214-.04-.321-.025s-.211.053-.303.112a.79.79 0 0 0-.233.229c-.079.159-.115.337-.102.516a.99.99 0 0 0 .174.495 1.77 1.77 0 0 1-.586-.577c-.149-.237-.242-.507-.271-.787a1.54 1.54 0 0 1 .244-.932c.178-.275.439-.481.743-.588a2.78 2.78 0 0 1 1.807-.08 2.86 2.86 0 0 1 1.493 1.054c.612 1.013.836 2.225.628 3.399a4.15 4.15 0 0 1-.535 1.552 4.02 4.02 0 0 1-1.088 1.205 7.04 7.04 0 0 1-4.3 1.178c-1.437-.051-2.854-.365-4.185-.928-2.224-.922-4.305-2.197-6.601-2.934-.797-.23-1.608-.409-2.426-.535-.614.01-1.229-.022-1.841.022-.749.066-1.486.239-2.189.514-2.335.75-4.447 2.062-6.708 2.981a10.57 10.57 0 0 1-6.064.698A5.29 5.29 0 0 1 .953 8.129C.305 7.326-.03 6.304.012 5.26A4.1 4.1 0 0 1 .804 2.5a2.85 2.85 0 0 1 1.087-.801c.419-.174.871-.243 1.321-.201.291.008.578.081.839.213s.493.321.678.553a1.56 1.56 0 0 1 .239.65 1.58 1.58 0 0 1-.064.692 2.13 2.13 0 0 1-.794.948c.102-.143.163-.313.176-.491s-.023-.355-.103-.512a.79.79 0 0 0-.247-.235c-.098-.059-.207-.095-.32-.106a.76.76 0 0 0-.334.042.78.78 0 0 0-.285.183c-.194.217-.319.49-.358.782s.011.59.142.853a1.93 1.93 0 0 0 .63.641 1.86 1.86 0 0 0 .843.277 3.28 3.28 0 0 0 2.284-1.031c1.269-1.272 2.618-2.457 4.036-3.548A7.34 7.34 0 0 1 14.713.005z" />
</svg>
